X:1
T:Title
%%score { ( 1 3 ) | ( 2 4 ) }
L:1/8
Q:1/4=94
M:4/4
K:Eb
V:1 treble nm="Grand Piano"
V:3 treble 
V:2 bass 
V:4 bass 
V:1
 [B,E]2 [DF]>[DF] [EG]4 | [GB][EG] [Ac]>[Ac] [GB]4 | cAec BGFE | [B,DF]2 [=A,EG]>[A,EG] [DF]4 | %4
w: D.~D.~Ford * * *||||
 [G,EG]2 [B,E]>[B,DF] [B,EG]4 | [GB]G [CAc]>[DAc] [GB]4 | [CAe]>[CAe] [Ed][Ec] BGE[EF] | %7
w: |||
 [EG]2 [DG]>[DF] E4 | [Ae]>[Ad] cB cB ec/c/ | z4 [B,B]4 | [Ae]>[Ad] cB cBAG | z4 [DF]4 | %12
w: |||||
 [G,E]2 [G,CE]>[B,DF] [B,EG]4 | [GB][EG] [Ac]>[Ac] [GB]4 | cAec BGE[=A,EF] | %15
w: |||
 .[B,EG]2 [B,DG]>[A,B,F] [G,B,E]4[Q:1/4=93][Q:1/4=91][Q:1/4=90][Q:1/4=88][Q:1/4=87][Q:1/4=85][Q:1/4=84][Q:1/4=82][Q:1/4=81][Q:1/4=79][Q:1/4=78][Q:1/4=76][Q:1/4=75][Q:1/4=73][Q:1/4=72] |] %16
w: |
V:2
 [E,G,]2 [B,,B,]>[B,,B,] [E,B,]4 | [E,B,]2 [E,C]>[E,D] [E,E]4 | %2
 [A,EA][A,CE][A,CE][A,E] [G,B,E][K:bass][E,B,E][D,B,][C,G,C] | B,,D, F,>F, z2 A,2 | %4
 E,2 G,,>B,, E,4 | z E E,>E, z2 _D2 | A,,>A,, [A,,B,][C,A,] [E,G,E][E,B,E][C,=A,][C,A,] | %7
 [B,,B,]2 [B,,B,]>[B,,A,] [E,G,]4 | [E,C]>[E,B,] [E,A,E][E,G,E] [E,A,E][G,B,E] [A,CE][A,E]/[A,E]/ | %9
 .G,2 z2 z4 | [E,C]>[E,B,] [E,A,E][E,G,E] [A,E][G,B,E][F,B,D][E,B,E] | z =A, F,>F, z2 _A,2 | %12
 z B, C,>B,, E,4 | [E,B,]2 [E,C]>[E,D] [E,E]4 | %14
 [A,EA][A,CE][A,CE][A,E] [G,B,E][K:bass][E,B,E][C,=A,]C, | z C B,,>B,, E,4 |] %16
V:3
 x8 | x8 | x8 | z4 B,2 z2 | x8 | z4 E2 z2 | x8 | x8 | x8 | BG[B,F][=A,CE] D2 A2 | x8 | %11
 .[B,EG]2 [=A,EF]>[A,EG] B,2 z2 | x8 | x8 | x8 | x8 |] %16
V:4
 x8 | x8 | x5[K:bass] x3 | z4 B,,4 | x8 | [E,B,]2 z2 E,4 | x8 | x8 | x8 | %9
 [B,E]-[E,B,E]D,C, B,,2 D,2 | x8 | C,2 z2 B,,4 | E,2 z2 z4 | x8 | x5[K:bass] x3 | B,,2 z2 z4 |] %16

